site/static/docs/images/icons/groups.svg

<svg fill="none" height="26" viewBox="0 0 26 26" width="26" xmlns="http://www.w3.org/2000/svg"><g fill="#0075ff"><circle cx="13" cy="13" opacity=".1" r="13"/><path clip-rule="evenodd" d="m6.75 6c-.46413 0-.90925.18437-1.23744.51256s-.51256.77331-.51256 1.23744v10.5c0 .966.784 1.75 1.75 1.75h12.5c.4641 0 .9092-.1844 1.2374-.5126s.5126-.7733.5126-1.2374v-8.5c0-.46413-.1844-.90925-.5126-1.23744s-.7733-.51256-1.2374-.51256h-6.5c-.0388 0-.0771-.00904-.1118-.02639-.0347-.01736-.0649-.04256-.0882-.07361l-.9-1.2c-.33-.44-.85-.7-1.4-.7z" fill-rule="evenodd"/></g></svg>

<svg width="26" height="26" viewBox="0 0 26 26" fill="none" xmlns="http://www.w3.org/2000/svg">
<circle opacity="0.1" cx="13" cy="13" r="13" fill="#0075ff"/>
<path fill-rule="evenodd" clip-rule="evenodd" d="M6.75 6C6.28587 6 5.84075 6.18437 5.51256 6.51256C5.18437 6.84075 5 7.28587 5 7.75V18.25C5 19.216 5.784 20 6.75 20H19.25C19.7141 20 20.1592 19.8156 20.4874 19.4874C20.8156 19.1592 21 18.7141 21 18.25V9.75C21 9.28587 20.8156 8.84075 20.4874 8.51256C20.1592 8.18437 19.7141 8 19.25 8H12.75C12.7112 8 12.6729 7.99096 12.6382 7.97361C12.6035 7.95625 12.5733 7.93105 12.55 7.9L11.65 6.7C11.32 6.26 10.8 6 10.25 6H6.75Z" fill="#0075ff"/>
</svg>
